X: 16
T: Humours Of Glendart, The
Z: UPipes & harp
S: https://thesession.org/tunes/45#setting50161
R: jig
M: 6/8
L: 1/8
K: Dmaj
A |:BAF ADD|FEF DFA|BAF ADD|FED E2 A|
BAF ADD|FEF DFA|dcB AFE|FDD D2A:|
|:def d2B|~A3 AFA|def d2f|~e3 fdB|
def d2B|~A3 ABc|dcB AFE|FDD D2A:|

